; generated by Slic3r 0.9.11-dev on 2013-08-31 at 15:05:04

; M-PLA-05-03-1

; layer_height = 0.3
; perimeters = 3
; top_solid_layers = 3
; bottom_solid_layers = 2
; fill_density = 0.2
; perimeter_speed = 10
; infill_speed = 10
; travel_speed = 250
; nozzle_diameter = 0.5
; filament_diameter = 1.75
; extrusion_multiplier = 1.0
; perimeters extrusion width = 0.50mm
; infill extrusion width = 0.50mm
; solid infill extrusion width = 0.50mm
; top infill extrusion width = 0.50mm
; first layer extrusion width = 0.50mm

G21 ; set units to millimeters
M107
M190 S57 ; wait for bed temperature to be reached
M104 S215 ; set temperature
G28
G1 Z0.3 F200
G1 X15 Y20 F12000
M109 S215 ; wait for temperature to be reached
G90 ; use absolute coordinates
G92 E0
M82 ; use absolute distances for extrusion
G1 Z0.300 F15000.000
G1 F2760.000 E-3.20000
G92 E0
G1 X7.610 Y98.711 F15000.000
G1 F2760.000 E3.20000
G1 X108.640 Y-2.309 F300.000 E12.10982
G1 X109.380 Y-2.879 E12.16808
G1 X110.250 Y-3.229 E12.22656
G1 X111.180 Y-3.339 E12.28496
G1 X188.130 Y-1.729 E17.08482
G1 X189.430 Y-1.449 E17.16775
G1 X190.530 Y-0.699 E17.25078
G1 X204.000 Y12.771 E18.43876
G1 X204.570 Y13.501 E18.49652
G1 X204.920 Y14.371 E18.55500
G1 X205.030 Y15.291 E18.61278
G1 X204.890 Y16.211 E18.67081
G1 X188.640 Y72.491 E22.32396
G1 X188.290 Y73.301 E22.37899
G1 X187.750 Y73.991 E22.43363
G1 X86.720 Y175.021 E31.34390
G1 X86.120 Y175.511 E31.39221
G1 X85.430 Y175.851 E31.44018
G1 X23.110 Y198.141 E35.56774
G1 X22.140 Y198.331 E35.62938
G1 X21.160 Y198.251 E35.69070
G1 X20.240 Y197.911 E35.75186
G1 X19.460 Y197.311 E35.81323
G1 X5.990 Y183.841 E37.00121
G1 X5.420 Y183.101 E37.05946
G1 X5.070 Y182.231 E37.11794
G1 X4.960 Y181.301 E37.17635
G1 X6.580 Y101.111 E42.17823
G1 X6.860 Y99.811 E42.26117
G1 X7.568 Y98.773 E42.33952
G1 F2760.000 E39.13952
G92 E0
G1 X98.663 Y53.033 F15000.000
G1 F2760.000 E3.20000
G1 X109.411 Y42.284 F300.000 E4.14791
G1 X120.159 Y53.033 E5.09583
G1 X109.411 Y63.781 E6.04374
G1 X98.716 Y53.086 E6.98698
G1 X99.370 Y53.033 F15000.000
G1 X109.411 Y42.992 F300.000 E7.87253
G1 X119.452 Y53.033 E8.75808
G1 X109.411 Y63.073 E9.64363
G1 X99.423 Y53.086 E10.52451
G1 X100.077 Y53.033 F15000.000
G1 X109.411 Y43.699 F300.000 E11.34769
G1 X118.744 Y53.033 E12.17088
G1 X109.411 Y62.366 E12.99407
G1 X100.130 Y53.086 E13.81258
G1 X99.723 Y52.679 F15000.000
G1 X98.185 Y53.510
G1 X108.933 Y64.258 F300.000 E14.76050
G1 X98.185 Y75.006 E15.70841
G1 X87.437 Y64.258 E16.65632
G1 X98.132 Y53.563 E17.59956
G1 X98.185 Y54.217 F15000.000
G1 X108.226 Y64.258 F300.000 E18.48511
G1 X98.185 Y74.299 E19.37066
G1 X88.144 Y64.258 E20.25621
G1 X98.132 Y54.270 E21.13709
G1 X98.185 Y54.924 F15000.000
G1 X107.519 Y64.258 F300.000 E21.96027
G1 X98.185 Y73.592 E22.78346
G1 X88.852 Y64.258 E23.60665
G1 X98.132 Y54.977 E24.42516
G1 X98.539 Y54.570 F15000.000
G1 X86.960 Y64.735
G1 X97.708 Y75.483 F300.000 E25.37308
G1 X86.960 Y86.231 E26.32099
G1 X76.212 Y75.483 E27.26890
G1 X86.907 Y64.788 E28.21214
G1 X86.960 Y65.442 F15000.000
G1 X97.001 Y75.483 F300.000 E29.09769
G1 X86.960 Y85.524 E29.98324
G1 X76.919 Y75.483 E30.86879
G1 X86.907 Y65.495 E31.74967
G1 X86.960 Y66.149 F15000.000
G1 X96.294 Y75.483 F300.000 E32.57285
G1 X86.960 Y84.817 E33.39604
G1 X77.626 Y75.483 E34.21923
G1 X86.907 Y66.202 E35.03774
G1 X87.314 Y65.796 F15000.000
G1 X75.735 Y75.960
G1 X86.483 Y86.708 F300.000 E35.98566
G1 X75.735 Y97.456 E36.93357
G1 X64.987 Y86.708 E37.88148
G1 X75.682 Y76.013 E38.82472
G1 X75.735 Y76.668 F15000.000
G1 X85.776 Y86.708 F300.000 E39.71027
G1 X75.735 Y96.749 E40.59582
G1 X65.694 Y86.708 E41.48137
G1 X75.682 Y76.721 E42.36225
G1 X75.735 Y77.375 F15000.000
G1 X85.069 Y86.708 F300.000 E43.18543
G1 X75.735 Y96.042 E44.00862
G1 X66.401 Y86.708 E44.83181
G1 X75.682 Y77.428 E45.65032
G1 X76.088 Y77.021 F15000.000
G1 X64.509 Y87.186
G1 X75.257 Y97.934 F300.000 E46.59824
G1 X64.509 Y108.682 E47.54615
G1 X53.761 Y97.934 E48.49406
G1 X64.456 Y87.239 E49.43730
G1 X64.509 Y87.893 F15000.000
G1 X74.550 Y97.934 F300.000 E50.32285
G1 X64.509 Y107.975 E51.20840
G1 X54.468 Y97.934 E52.09395
G1 X64.456 Y87.946 E52.97483
G1 X64.509 Y88.600 F15000.000
G1 X73.843 Y97.934 F300.000 E53.79802
G1 X64.509 Y107.268 E54.62120
G1 X55.176 Y97.934 E55.44439
G1 X64.456 Y88.653 E56.26290
G1 X64.863 Y88.246 F15000.000
G1 X53.284 Y98.411
G1 X64.032 Y109.159 F300.000 E57.21082
G1 X53.284 Y119.907 E58.15873
G1 X42.536 Y109.159 E59.10664
G1 X53.231 Y98.464 E60.04988
G1 X53.284 Y99.118 F15000.000
G1 X63.325 Y109.159 F300.000 E60.93543
G1 X53.284 Y119.200 E61.82098
G1 X43.243 Y109.159 E62.70653
G1 X53.231 Y99.171 E63.58741
G1 X53.284 Y99.825 F15000.000
G1 X62.618 Y109.159 F300.000 E64.41060
G1 X53.284 Y118.493 E65.23378
G1 X43.950 Y109.159 E66.05697
G1 X53.231 Y99.878 E66.87548
G1 X53.638 Y99.472 F15000.000
G1 X42.059 Y109.636
G1 X52.807 Y120.384 F300.000 E67.82340
G1 X42.059 Y131.132 E68.77131
G1 X31.311 Y120.384 E69.71923
G1 X42.006 Y109.689 E70.66246
G1 X42.059 Y110.344 F15000.000
G1 X52.100 Y120.384 F300.000 E71.54801
G1 X42.059 Y130.425 E72.43356
G1 X32.018 Y120.384 E73.31912
G1 X42.006 Y110.397 E74.19999
G1 X42.059 Y111.051 F15000.000
G1 X51.393 Y120.384 F300.000 E75.02318
G1 X42.059 Y129.718 E75.84637
G1 X32.725 Y120.384 E76.66955
G1 X42.006 Y111.104 E77.48807
G1 X42.412 Y110.697 F15000.000
G1 F2760.000 E74.28807
G92 E0
G1 X25.588 Y119.142 F15000.000
G1 X25.588 Y121.627
G1 X40.664 Y136.703
G1 X43.454 Y136.703
G1 X51.612 Y122.534
G1 F2760.000 E3.20000
G1 X42.059 Y132.087 F300.000 E4.04256
G1 X30.356 Y120.384 E5.07466
G1 X111.656 Y39.085 E12.24482
G1 X115.248 Y42.677 E12.56162
G1 X127.910 Y30.015 E13.67832
G1 X131.736 Y26.189 E14.01578
G1 X124.552 Y26.189 E14.46381
G1 X129.616 Y21.124 E14.91047
G1 X141.319 Y32.827 E15.94257
G1 X136.254 Y37.891 E16.38923
G1 X136.254 Y30.707 E16.83725
G1 X119.766 Y47.195 E18.29141
G1 X123.358 Y50.787 E18.60821
G1 X51.665 Y122.481 E24.93113
G1 X51.966 Y122.887 F15000.000
G1 X42.059 Y132.794 F300.000 E25.80488
G1 X29.649 Y120.384 E26.89934
G1 X111.656 Y38.378 E34.13186
G1 X115.248 Y41.970 E34.44867
G1 X127.556 Y29.662 E35.53418
G1 X130.529 Y26.689 E35.79636
G1 X123.345 Y26.689 E36.24439
G1 X129.616 Y20.417 E36.79751
G1 X142.026 Y32.827 E37.89197
G1 X135.754 Y39.099 E38.44509
G1 X135.754 Y31.914 E38.89312
G1 X120.473 Y47.195 E40.24082
G1 X124.065 Y50.787 E40.55762
G1 X52.019 Y122.834 E46.91172
G1 X52.319 Y123.241 F15000.000
G1 X42.059 Y133.501 F300.000 E47.81664
G1 X28.942 Y120.384 E48.97347
G1 X111.656 Y37.671 E56.26836
G1 X115.248 Y41.263 E56.58516
G1 X127.202 Y29.308 E57.63949
G1 X129.322 Y27.189 E57.82640
G1 X122.138 Y27.189 E58.27442
G1 X129.616 Y19.710 E58.93400
G1 X142.733 Y32.827 E60.09083
G1 X135.254 Y40.306 E60.75040
G1 X135.254 Y33.121 E61.19843
G1 X121.180 Y47.195 E62.43967
G1 X124.773 Y50.787 E62.75647
G1 X52.372 Y123.188 E69.14176
G1 X51.836 Y123.111 F15000.000
G1 X120.353 Y52.714
G1 X109.729 Y42.090 F300.000 E70.07958
G1 X109.800 Y41.453 E70.11957
G1 X120.990 Y52.643 E71.10733
G1 X121.344 Y52.289 E71.13857
G1 X110.154 Y41.099 E72.12633
G1 X110.508 Y40.746 E72.15756
G1 X121.698 Y51.936 E73.14533
G1 X122.051 Y51.582 E73.17656
G1 X110.861 Y40.392 E74.16432
G1 X111.215 Y40.038 E74.19556
G1 X122.405 Y51.228 E75.18332
G1 X122.759 Y50.874 E75.21455
G1 X111.569 Y39.684 E76.20232
G1 X115.497 Y42.905 F15000.000
G1 X119.539 Y46.946 F300.000 E76.55904
G1 X119.892 Y46.592 E76.59027
G1 X115.851 Y42.551 E76.94700
G1 X116.205 Y42.197 E76.97823
G1 X120.246 Y46.238 E77.33495
G1 X120.600 Y45.884 E77.36619
G1 X116.559 Y41.843 E77.72291
G1 X116.913 Y41.489 E77.75415
G1 X120.954 Y45.530 E78.11087
G1 X121.308 Y45.176 E78.14211
G1 X117.267 Y41.135 E78.49883
G1 X117.621 Y40.781 E78.53006
G1 X121.662 Y44.823 E78.88679
G1 X122.016 Y44.469 E78.91802
G1 X117.974 Y40.428 E79.27474
G1 X118.328 Y40.074 E79.30598
G1 X122.370 Y44.115 E79.66270
G1 X122.723 Y43.761 E79.69394
G1 X118.682 Y39.720 E80.05066
G1 X119.036 Y39.366 E80.08190
G1 X123.077 Y43.407 E80.43862
G1 X123.431 Y43.053 E80.46985
G1 X119.390 Y39.012 E80.82658
G1 X119.744 Y38.658 E80.85781
G1 X123.785 Y42.699 E81.21453
G1 X124.139 Y42.345 E81.24577
G1 X120.098 Y38.304 E81.60249
G1 X120.452 Y37.950 E81.63373
G1 X124.493 Y41.992 E81.99045
G1 X124.847 Y41.638 E82.02169
G1 X120.805 Y37.597 E82.37841
G1 X121.159 Y37.243 E82.40964
G1 X125.200 Y41.284 E82.76637
G1 X125.554 Y40.930 E82.79760
G1 X121.513 Y36.889 E83.15433
G1 X121.867 Y36.535 E83.18556
G1 X125.908 Y40.576 E83.54228
G1 X126.262 Y40.222 E83.57352
G1 X122.221 Y36.181 E83.93024
G1 X122.575 Y35.827 E83.96148
G1 X126.616 Y39.868 E84.31820
G1 X126.970 Y39.515 E84.34944
G1 X122.929 Y35.473 E84.70616
G1 X123.282 Y35.120 E84.73739
G1 X127.324 Y39.161 E85.09412
G1 X127.677 Y38.807 E85.12535
G1 X123.636 Y34.766 E85.48207
G1 X123.990 Y34.412 E85.51331
G1 X128.031 Y38.453 E85.87003
G1 X128.385 Y38.099 E85.90127
G1 X124.344 Y34.058 E86.25799
G1 X124.698 Y33.704 E86.28923
G1 X128.739 Y37.745 E86.64595
G1 X129.093 Y37.391 E86.67719
G1 X125.052 Y33.350 E87.03391
G1 X125.406 Y32.996 E87.06514
G1 X129.447 Y37.038 E87.42187
G1 X129.801 Y36.684 E87.45310
G1 X125.760 Y32.642 E87.80982
G1 X126.113 Y32.289 E87.84106
G1 X130.155 Y36.330 E88.19778
G1 X130.508 Y35.976 E88.22902
G1 X126.467 Y31.935 E88.58574
G1 X126.821 Y31.581 E88.61698
G1 X130.862 Y35.622 E88.97370
G1 X131.216 Y35.268 E89.00494
G1 X127.175 Y31.227 E89.36166
G1 X127.529 Y30.873 E89.39289
G1 X131.570 Y34.914 E89.74962
G1 X131.924 Y34.560 E89.78085
G1 X127.883 Y30.519 E90.13757
G1 X128.237 Y30.165 E90.16881
G1 X132.278 Y34.207 E90.52553
G1 X132.632 Y33.853 E90.55677
G1 X128.590 Y29.812 E90.91349
G1 X128.944 Y29.458 E90.94473
G1 X132.985 Y33.499 E91.30145
G1 X133.339 Y33.145 E91.33269
G1 X129.298 Y29.104 E91.68941
G1 X129.652 Y28.750 E91.72064
G1 X133.693 Y32.791 E92.07737
G1 X134.047 Y32.437 E92.10860
G1 X130.006 Y28.396 E92.46532
G1 X130.360 Y28.042 E92.49656
G1 X134.401 Y32.083 E92.85328
G1 X134.755 Y31.730 E92.88452
G1 X130.714 Y27.688 E93.24124
G1 X131.067 Y27.335 E93.27248
G1 X135.109 Y31.376 E93.62920
G1 X135.463 Y31.022 E93.66044
G1 X131.421 Y26.981 E94.01716
G1 X131.775 Y26.627 E94.04839
G1 X135.816 Y30.668 E94.40512
G1 X136.170 Y30.314 E94.43635
G1 X132.129 Y26.273 E94.79307
G1 X132.483 Y25.919 E94.82431
G1 X140.099 Y33.535 E95.49655
G1 X140.452 Y33.181 E95.52779
G1 X129.262 Y21.991 E96.51555
G1 X129.616 Y21.637 E96.54679
G1 X140.806 Y32.827 E97.53455
G1 X139.745 Y33.889 F15000.000
G1 X136.592 Y30.736 F300.000 E97.81285
G1 X136.592 Y31.443 E97.85702
G1 X139.391 Y34.242 E98.10409
G1 X139.037 Y34.596 E98.13533
G1 X136.592 Y32.151 E98.35116
G1 X136.592 Y32.859 E98.39533
G1 X138.683 Y34.950 E98.57992
G1 X138.329 Y35.304 E98.61116
G1 X136.592 Y33.567 E98.76452
G1 X136.592 Y34.274 E98.80869
G1 X137.975 Y35.658 E98.93081
G1 X137.621 Y36.012 E98.96205
G1 X136.592 Y34.982 E99.05294
G1 X136.592 Y35.690 E99.09711
G1 X137.268 Y36.366 E99.15676
G1 X136.914 Y36.719 E99.18800
G1 X136.592 Y36.398 E99.21641
G1 X132.415 Y25.851 F15000.000
G1 X128.909 Y22.345 F300.000 E99.52595
G1 X128.555 Y22.699 E99.55718
G1 X131.707 Y25.851 E99.83549
G1 X131.000 Y25.851 E99.87966
G1 X128.201 Y23.052 E100.12673
G1 X127.847 Y23.406 E100.15796
G1 X130.292 Y25.851 E100.37379
G1 X129.584 Y25.851 E100.41797
G1 X127.493 Y23.760 E100.60256
G1 X127.139 Y24.114 E100.63380
G1 X128.877 Y25.851 E100.78716
G1 X128.169 Y25.851 E100.83133
G1 X126.785 Y24.468 E100.95345
G1 X126.431 Y24.822 E100.98469
G1 X127.461 Y25.851 E101.07557
G1 X126.753 Y25.851 E101.11975
G1 X126.078 Y25.176 E101.17940
G1 X125.724 Y25.529 E101.21063
G1 X126.046 Y25.851 E101.23905
G1 F2760.000 E98.03905
G92 E0
G1 X128.374 Y16.357 F15000.000
G1 X127.434 Y15.022
G1 X101.659 Y33.833
G1 F2760.000 E3.20000
G1 X90.911 Y44.581 F300.000 E4.14791
G1 X80.163 Y33.833 E5.09583
G1 X90.911 Y23.084 E6.04374
G1 X101.606 Y33.779 E6.98698
G1 X100.952 Y33.833 F15000.000
G1 X90.911 Y43.873 F300.000 E7.87253
G1 X80.870 Y33.833 E8.75808
G1 X90.911 Y23.792 E9.64363
G1 X100.899 Y33.779 E10.52451
G1 X100.244 Y33.833 F15000.000
G1 X90.911 Y43.166 F300.000 E11.34769
G1 X81.577 Y33.833 E12.17088
G1 X90.911 Y24.499 E12.99407
G1 X100.191 Y33.779 E13.81258
G1 X100.598 Y34.186 F15000.000
G1 X90.433 Y45.058
G1 X79.685 Y55.806 F300.000 E14.76050
G1 X68.937 Y45.058 E15.70841
G1 X79.685 Y34.310 E16.65632
G1 X90.380 Y45.005 E17.59956
G1 X89.726 Y45.058 F15000.000
G1 X79.685 Y55.099 F300.000 E18.48511
G1 X69.644 Y45.058 E19.37066
G1 X79.685 Y35.017 E20.25621
G1 X89.673 Y45.005 E21.13709
G1 X89.019 Y45.058 F15000.000
G1 X79.685 Y54.392 F300.000 E21.96027
G1 X70.352 Y45.058 E22.78346
G1 X79.685 Y35.724 E23.60665
G1 X88.966 Y45.005 E24.42516
G1 X89.373 Y45.411 F15000.000
G1 X79.208 Y56.283
G1 X68.460 Y67.031 F300.000 E25.37308
G1 X57.712 Y56.283 E26.32099
G1 X68.460 Y45.535 E27.26890
G1 X79.155 Y56.230 E28.21214
G1 X78.501 Y56.283 F15000.000
G1 X68.460 Y66.324 F300.000 E29.09769
G1 X58.419 Y56.283 E29.98324
G1 X68.460 Y46.242 E30.86879
G1 X78.448 Y56.230 E31.74967
G1 X77.794 Y56.283 F15000.000
G1 X68.460 Y65.617 F300.000 E32.57285
G1 X59.126 Y56.283 E33.39604
G1 X68.460 Y46.949 E34.21923
G1 X77.741 Y56.230 E35.03774
G1 X78.147 Y56.637 F15000.000
G1 X67.983 Y67.508
G1 X57.235 Y78.256 F300.000 E35.98566
G1 X46.487 Y67.508 E36.93357
G1 X57.235 Y56.760 E37.88148
G1 X67.930 Y67.455 E38.82472
G1 X67.276 Y67.508 F15000.000
G1 X57.235 Y77.549 F300.000 E39.71027
G1 X47.194 Y67.508 E40.59582
G1 X57.235 Y57.468 E41.48137
G1 X67.223 Y67.455 E42.36225
G1 X66.569 Y67.508 F15000.000
G1 X57.235 Y76.842 F300.000 E43.18543
G1 X47.901 Y67.508 E44.00862
G1 X57.235 Y58.175 E44.83181
G1 X66.515 Y67.455 E45.65032
G1 X66.922 Y67.862 F15000.000
G1 X56.757 Y78.734
G1 X46.009 Y89.482 F300.000 E46.59824
G1 X35.261 Y78.734 E47.54615
G1 X46.009 Y67.986 E48.49406
G1 X56.704 Y78.681 E49.43730
G1 X56.050 Y78.734 F15000.000
G1 X46.009 Y88.775 F300.000 E50.32285
G1 X35.968 Y78.734 E51.20840
G1 X46.009 Y68.693 E52.09395
G1 X55.997 Y78.681 E52.97483
G1 X55.343 Y78.734 F15000.000
G1 X46.009 Y88.068 F300.000 E53.79801
G1 X36.676 Y78.734 E54.62120
G1 X46.009 Y69.400 E55.44439
G1 X55.290 Y78.681 E56.26290
G1 X55.697 Y79.087 F15000.000
G1 X45.532 Y89.959
G1 X34.784 Y100.707 F300.000 E57.21082
G1 X24.036 Y89.959 E58.15873
G1 X34.784 Y79.211 E59.10664
G1 X45.479 Y89.906 E60.04988
G1 X44.825 Y89.959 F15000.000
G1 X34.784 Y100.000 F300.000 E60.93543
G1 X24.743 Y89.959 E61.82098
G1 X34.784 Y79.918 E62.70653
G1 X44.772 Y89.906 E63.58741
G1 X44.118 Y89.959 F15000.000
G1 X34.784 Y99.293 F300.000 E64.41060
G1 X25.450 Y89.959 E65.23378
G1 X34.784 Y80.625 E66.05697
G1 X44.065 Y89.906 E66.87548
G1 X44.471 Y90.313 F15000.000
G1 X34.307 Y101.184
G1 X23.559 Y111.932 F300.000 E67.82340
G1 X12.811 Y101.184 E68.77131
G1 X23.559 Y90.436 E69.71923
G1 X34.254 Y101.131 E70.66246
G1 X33.600 Y101.184 F15000.000
G1 X23.559 Y111.225 F300.000 E71.54801
G1 X13.518 Y101.184 E72.43356
G1 X23.559 Y91.144 E73.31912
G1 X33.547 Y101.131 E74.19999
G1 X32.893 Y101.184 F15000.000
G1 X23.559 Y110.518 F300.000 E75.02318
G1 X14.225 Y101.184 E75.84637
G1 X23.559 Y91.851 E76.66955
G1 X32.840 Y101.131 E77.48807
G1 X33.246 Y101.538 F15000.000
G1 X33.112 Y103.334
G1 X23.559 Y112.887 F300.000 E78.33063
G1 X11.856 Y101.184 E79.36273
G1 X93.156 Y19.885 E86.53289
G1 X96.748 Y23.477 E86.84969
G1 X109.410 Y10.815 E87.96638
G1 X113.236 Y6.989 E88.30385
G1 X106.052 Y6.989 E88.75187
G1 X111.116 Y1.924 E89.19853
G1 X122.819 Y13.627 E90.23063
G1 X117.754 Y18.691 E90.67729
G1 X117.754 Y11.507 E91.12532
G1 X101.266 Y27.995 E92.57948
G1 X104.858 Y31.587 E92.89628
G1 X33.165 Y103.281 E99.21920
G1 X33.466 Y103.687 F15000.000
G1 X23.559 Y113.594 F300.000 E100.09294
G1 X11.149 Y101.184 E101.18741
G1 X93.156 Y19.178 E108.41993
G1 X96.748 Y22.770 E108.73673
G1 X109.056 Y10.462 E109.82224
G1 X112.029 Y7.489 E110.08443
G1 X104.845 Y7.489 E110.53246
G1 X111.116 Y1.217 E111.08557
G1 X123.526 Y13.627 E112.18004
G1 X117.254 Y19.899 E112.73315
G1 X117.254 Y12.714 E113.18118
G1 X101.973 Y27.995 E114.52888
G1 X105.565 Y31.587 E114.84568
G1 X33.519 Y103.634 E121.19978
G1 X33.819 Y104.041 F15000.000
G1 X23.559 Y114.301 F300.000 E122.10471
