; generated by Slic3r 0.9.11-dev on 2013-08-29 at 14:46:25

; M-PLA-05-03-1

; layer_height = 0.3
; perimeters = 3
; top_solid_layers = 3
; bottom_solid_layers = 2
; fill_density = 0.2
; perimeter_speed = 10
; infill_speed = 10
; travel_speed = 250
; nozzle_diameter = 0.5
; filament_diameter = 1.75
; extrusion_multiplier = 1.0
; perimeters extrusion width = 0.50mm
; infill extrusion width = 0.50mm
; solid infill extrusion width = 0.50mm
; top infill extrusion width = 0.50mm
; first layer extrusion width = 0.50mm

G21 ; set units to millimeters
M107
M190 S57 ; wait for bed temperature to be reached
M104 S215 ; set temperature
G28
G1 Z0.3 F200
G1 X15 Y20 F12000
M109 S215 ; wait for temperature to be reached
G90 ; use absolute coordinates
G92 E0
M82 ; use absolute distances for extrusion
G1 Z0.300 F15000.000
G1 F2760.000 E-3.20000
G92 E0
G1 X13.113 Y30.420 F15000.000
G1 F2760.000 E3.20000
G1 X37.533 Y5.990 F300.000 E5.35414
G1 X38.273 Y5.300 E5.41724
G1 X39.233 Y4.530 E5.49399
G1 X40.213 Y3.860 E5.56802
G1 X40.993 Y3.390 E5.62481
G1 X41.813 Y2.960 E5.68256
G1 X42.683 Y2.570 E5.74201
G1 X43.743 Y2.170 E5.81267
G1 X44.433 Y1.960 E5.85765
G1 X45.633 Y1.660 E5.93478
G1 X46.543 Y1.500 E5.99241
G1 X47.273 Y1.410 E6.03828
G1 X48.083 Y1.350 E6.08893
G1 X49.263 Y1.330 E6.16253
G1 X128.563 Y4.230 E11.11120
G1 X129.133 Y4.300 E11.14701
G1 X129.683 Y4.460 E11.18273
G1 X147.473 Y11.280 E12.37090
G1 X148.083 Y11.590 E12.41357
G1 X148.623 Y12.000 E12.45585
G1 X196.233 Y56.810 E16.53318
G1 X197.253 Y57.840 E16.62358
G1 X197.763 Y58.430 E16.67221
G1 X198.623 Y59.560 E16.76077
G1 X199.233 Y60.510 E16.83118
G1 X199.623 Y61.200 E16.88061
G1 X200.193 Y62.420 E16.96458
G1 X200.793 Y64.030 E17.07173
G1 X201.083 Y65.100 E17.14087
G1 X201.243 Y65.820 E17.18686
G1 X201.383 Y66.780 E17.24737
G1 X201.513 Y68.210 E17.33691
G1 X201.523 Y69.260 E17.40240
G1 X201.473 Y70.140 E17.45736
G1 X201.313 Y71.460 E17.54028
G1 X201.133 Y72.430 E17.60181
G1 X200.823 Y73.650 E17.68031
G1 X200.633 Y74.250 E17.71956
G1 X200.153 Y75.470 E17.80132
G1 X199.673 Y76.460 E17.86993
G1 X199.123 Y77.430 E17.93947
G1 X198.693 Y78.100 E17.98912
G1 X198.483 Y78.380 E18.01095
G1 X198.243 Y78.640 E18.03301
G1 X187.493 Y89.400 E18.98154
G1 X79.233 Y192.220 E28.29265
G1 X78.363 Y192.820 E28.35856
G1 X77.363 Y193.140 E28.42404
G1 X76.303 Y193.140 E28.49014
G1 X71.713 Y192.450 E28.77960
G1 X71.123 Y192.310 E28.81742
G1 X70.763 Y192.190 E28.84108
G1 X70.303 Y192.000 E28.87212
G1 X70.083 Y191.890 E28.88746
G1 X69.343 Y191.430 E28.94180
G1 X68.863 Y191.070 E28.97922
G1 X40.493 Y165.040 E31.38032
G1 X39.433 Y163.970 E31.47425
G1 X19.443 Y141.050 E33.37086
G1 X19.083 Y140.560 E33.40878
G1 X18.813 Y140.010 E33.44699
G1 X11.983 Y122.230 E34.63479
G1 X11.823 Y121.680 E34.67052
G1 X11.753 Y121.120 E34.70571
G1 X8.463 Y41.930 E39.64848
G1 X8.483 Y40.960 E39.70898
G1 X8.533 Y40.260 E39.75275
G1 X8.733 Y38.850 E39.84156
G1 X9.013 Y37.560 E39.92388
G1 X9.323 Y36.560 E39.98917
G1 X9.483 Y36.100 E40.01954
G1 X9.723 Y35.500 E40.05984
G1 X10.323 Y34.240 E40.14687
G1 X10.553 Y33.820 E40.17674
G1 X11.293 Y32.620 E40.26466
G1 X11.833 Y31.870 E40.32229
G1 X12.453 Y31.130 E40.38250
G1 X13.062 Y30.475 E40.43827
G1 F2760.000 E37.23827
G92 E0
G1 X128.128 Y14.968 F15000.000
G1 F2760.000 E3.20000
G1 X130.181 Y10.071 F300.000 E3.53115
G1 X143.277 Y15.561 E4.41670
G1 X141.223 Y20.458 E4.74784
G1 X128.197 Y14.997 E5.62872
G1 X128.782 Y14.700 F15000.000
G1 X130.449 Y10.725 F300.000 E5.89750
G1 X142.622 Y15.829 E6.72069
G1 X140.956 Y19.804 E6.98947
G1 X128.852 Y14.729 E7.80799
G1 X128.321 Y14.507 F15000.000
G1 X127.281 Y15.838
G1 X141.085 Y22.201 F300.000 E8.75590
G1 X138.444 Y27.931 E9.14941
G1 X124.640 Y21.568 E10.09732
G1 X127.250 Y15.906 E10.48615
G1 X127.526 Y16.501 F15000.000
G1 X140.422 Y22.446 F300.000 E11.37170
G1 X138.199 Y27.268 E11.70285
G1 X125.303 Y21.323 E12.58840
G1 X127.495 Y16.569 E12.91487
G1 X127.771 Y17.164 F15000.000
G1 X139.758 Y22.690 F300.000 E13.73806
G1 X137.954 Y26.604 E14.00684
G1 X125.966 Y21.079 E14.83003
G1 X127.739 Y17.233 E15.09414
G1 X127.980 Y16.710 F15000.000
G1 X124.426 Y22.163
G1 X138.000 Y29.004 F300.000 E16.04205
G1 X135.160 Y34.639 E16.43556
G1 X121.587 Y27.798 E17.38347
G1 X124.393 Y22.230 E17.77231
G1 X124.648 Y22.835 F15000.000
G1 X137.328 Y29.226 F300.000 E18.65786
G1 X134.939 Y33.968 E18.98900
G1 X122.258 Y27.577 E19.87455
G1 X124.614 Y22.902 E20.20102
G1 X124.869 Y23.506 F15000.000
G1 X136.657 Y29.447 F300.000 E21.02421
G1 X134.717 Y33.296 E21.29300
G1 X122.930 Y27.355 E22.11618
G1 X124.836 Y23.573 E22.38029
G1 X125.094 Y23.060 F15000.000
G1 X121.353 Y28.385
G1 X134.679 Y35.696 F300.000 E23.32820
G1 X131.644 Y41.228 E23.72171
G1 X118.318 Y33.918 E24.66963
G1 X121.317 Y28.451 E25.05846
G1 X121.551 Y29.064 F15000.000
G1 X134.000 Y35.894 F300.000 E25.94401
G1 X131.447 Y40.549 E26.27516
G1 X118.997 Y33.720 E27.16071
G1 X121.515 Y29.130 E27.48718
G1 X121.748 Y29.743 F15000.000
G1 X133.322 Y36.092 F300.000 E28.31036
G1 X131.249 Y39.871 E28.57915
G1 X119.676 Y33.522 E29.40234
G1 X121.712 Y29.809 E29.66644
G1 X121.989 Y29.305 F15000.000
G1 F2760.000 E26.46644
G92 E0
G1 X112.258 Y19.682 F15000.000
G1 X110.061 Y16.517
G1 X104.252 Y13.132
G1 X49.348 Y1.840
G1 X48.961 Y1.840
G1 X43.292 Y2.834
G1 X38.348 Y5.908
G1 X12.620 Y31.678
G1 X9.209 Y38.770
G1 X9.171 Y44.327
G1 X20.074 Y96.461
G1 X23.169 Y102.401
G1 X26.892 Y105.112
G1 X41.687 Y110.768
G1 F2760.000 E3.20000
G1 X48.765 Y124.220 F300.000 E4.14791
G1 X43.181 Y127.158 E4.54142
G1 X36.103 Y113.706 E5.48934
G1 X41.621 Y110.803 E5.87817
G1 X41.477 Y111.443 F15000.000
G1 X48.090 Y124.010 F300.000 E6.76372
G1 X43.390 Y126.483 E7.09487
G1 X36.778 Y113.916 E7.98042
G1 X41.411 Y111.478 E8.30689
G1 X41.268 Y112.119 F15000.000
G1 X47.414 Y123.800 F300.000 E9.13007
G1 X43.600 Y125.807 E9.39886
G1 X37.454 Y114.126 E10.22205
G1 X41.201 Y112.154 E10.48615
G1 X41.710 Y111.886 F15000.000
G1 X35.571 Y114.049
G1 X42.176 Y127.739 F300.000 E11.43407
G1 X36.492 Y130.481 E11.82758
G1 X29.888 Y116.790 E12.77549
G1 X35.504 Y114.081 E13.16432
G1 X35.338 Y114.716 F15000.000
G1 X41.508 Y127.506 F300.000 E14.04987
G1 X36.725 Y129.813 E14.38102
G1 X30.556 Y117.023 E15.26657
G1 X35.271 Y114.749 E15.59304
G1 X35.105 Y115.384 F15000.000
G1 X40.840 Y127.273 F300.000 E16.41623
G1 X36.958 Y129.146 E16.68501
G1 X31.223 Y117.257 E17.50820
G1 X35.038 Y115.417 E17.77231
G1 X35.556 Y115.167 F15000.000
G1 X29.345 Y117.114
G1 X35.467 Y131.026 F300.000 E18.72022
G1 X29.692 Y133.568 E19.11373
G1 X23.570 Y119.656 E20.06164
G1 X29.276 Y117.144 E20.45048
G1 X29.089 Y117.773 F15000.000
G1 X34.808 Y130.770 F300.000 E21.33603
G1 X29.948 Y132.909 E21.66717
G1 X24.229 Y119.912 E22.55272
G1 X29.020 Y117.803 E22.87919
G1 X28.833 Y118.432 F15000.000
G1 X34.149 Y130.514 F300.000 E23.70238
G1 X30.204 Y132.250 E23.97116
G1 X24.888 Y120.168 E24.79435
G1 X28.764 Y118.462 E25.05846
G1 X29.290 Y118.231 F15000.000
G1 X22.736 Y120.610
G1 X27.999 Y133.799 F300.000 E25.94401
G1 X23.067 Y135.766 E26.27516
G1 X17.804 Y122.578 E27.16071
G1 X22.667 Y120.637 E27.48718
G1 X22.457 Y121.259 F15000.000
G1 X27.349 Y133.519 F300.000 E28.31037
G1 X23.346 Y135.117 E28.57915
G1 X18.454 Y122.857 E29.40234
G1 X22.388 Y121.287 E29.66644
G1 X22.922 Y121.074 F15000.000
G1 X23.015 Y119.960
G1 X17.108 Y122.317 F300.000 E30.06306
G1 X16.858 Y121.665 E30.10665
G1 X25.282 Y118.172 E30.67534
G1 X34.640 Y113.705 E31.32202
G1 X43.751 Y108.755 E31.96869
G1 X52.592 Y103.334 E32.61537
G1 X61.136 Y97.459 E33.26204
G1 X69.361 Y91.144 E33.90872
G1 X77.244 Y84.407 E34.55540
G1 X84.764 Y77.268 E35.20207
G1 X91.901 Y69.744 E35.84875
G1 X98.633 Y61.858 E36.49542
G1 X104.944 Y53.629 E37.14210
G1 X110.816 Y45.082 E37.78877
G1 X116.232 Y36.240 E38.43545
G1 X121.178 Y27.126 E39.08213
G1 X125.640 Y17.765 E39.72880
G1 X129.129 Y9.340 E40.29750
G1 X129.832 Y9.610 E40.34450
G1 X127.474 Y15.235 E40.72493
G1 X141.491 Y21.113 E41.67284
G1 X144.030 Y15.057 E42.08237
G1 X144.580 Y15.268 E42.11905
G1 X140.760 Y24.494 E42.74177
G1 X135.925 Y34.636 E43.44247
G1 X130.566 Y44.511 E44.14317
G1 X124.697 Y54.093 E44.84387
G1 X118.335 Y63.354 E45.54457
G1 X111.497 Y72.269 E46.24527
G1 X104.202 Y80.815 E46.94597
G1 X96.469 Y88.967 E47.64667
G1 X88.321 Y96.703 E48.34737
G1 X79.779 Y104.002 E49.04807
G1 X70.867 Y110.845 E49.74877
G1 X61.609 Y117.211 E50.44947
G1 X52.030 Y123.085 E51.15017
G1 X42.157 Y128.449 E51.85087
G1 X32.017 Y133.289 E52.55157
G1 X22.793 Y137.113 E53.17429
G1 X22.560 Y136.507 E53.21476
G1 X28.649 Y134.078 E53.62354
G1 X23.043 Y120.030 E54.56678
G1 X24.161 Y118.096 F15000.000
G1 X25.078 Y117.715 F300.000 E54.62872
G1 X34.413 Y113.260 E55.27377
G1 X43.501 Y108.322 E55.91881
G1 X52.319 Y102.915 E56.56385
G1 X60.842 Y97.054 E57.20890
G1 X69.046 Y90.755 E57.85394
G1 X76.910 Y84.036 E58.49898
G1 X84.411 Y76.914 E59.14402
G1 X91.529 Y69.410 E59.78907
G1 X98.244 Y61.543 E60.43411
G1 X104.539 Y53.335 E61.07915
G1 X110.396 Y44.810 E61.72420
G1 X115.799 Y35.990 E62.36924
G1 X120.732 Y26.899 E63.01428
G1 X125.183 Y17.562 E63.65932
G1 X128.853 Y8.698 E64.25758
G1 X145.238 Y14.985 E65.35201
G1 X141.217 Y24.697 E66.00756
G1 X136.371 Y34.863 E66.70989
G1 X130.999 Y44.761 E67.41222
G1 X125.116 Y54.365 E68.11456
G1 X118.739 Y63.648 E68.81689
G1 X111.885 Y72.584 E69.51922
G1 X104.573 Y81.149 E70.22155
G1 X97.544 Y88.560 E70.85852
G1 X96.823 Y89.320 E70.92389
G1 X88.656 Y97.075 E71.62622
G1 X80.094 Y104.391 E72.32855
G1 X71.161 Y111.249 E73.03089
G1 X62.745 Y117.037 E73.66785
G1 X61.881 Y117.631 E73.73322
G1 X52.280 Y123.518 E74.43555
G1 X42.385 Y128.894 E75.13788
G1 X32.221 Y133.746 E75.84022
G1 X22.511 Y137.771 E76.49576
G1 X16.216 Y121.389 E77.59020
G1 X24.091 Y118.125 E78.12183
G1 X23.969 Y117.634 F15000.000
G1 X24.875 Y117.259 F300.000 E78.18296
G1 X34.186 Y112.814 E78.82637
G1 X43.251 Y107.889 E79.46978
G1 X52.046 Y102.496 E80.11319
G1 X60.548 Y96.650 E80.75660
G1 X68.731 Y90.367 E81.40001
G1 X76.575 Y83.664 E82.04342
G1 X84.057 Y76.561 E82.68683
G1 X91.157 Y69.075 E83.33024
G1 X97.856 Y61.228 E83.97365
G1 X104.135 Y53.042 E84.61706
G1 X109.977 Y44.538 E85.26047
G1 X115.365 Y35.740 E85.90388
G1 X120.287 Y26.672 E86.54729
G1 X124.726 Y17.359 E87.19070
G1 X128.577 Y8.057 E87.81851
G1 X145.896 Y14.702 E88.97533
G1 X141.674 Y24.900 E89.66370
G1 X136.816 Y35.090 E90.36767
G1 X131.432 Y45.011 E91.07163
G1 X125.536 Y54.637 E91.77560
G1 X119.144 Y63.942 E92.47956
G1 X112.274 Y72.899 E93.18353
G1 X104.945 Y81.484 E93.88749
G1 X97.907 Y88.904 E94.52527
G1 X97.177 Y89.674 E94.59146
G1 X88.990 Y97.446 E95.29542
G1 X80.409 Y104.780 E95.99939
G1 X71.455 Y111.654 E96.70336
G1 X63.028 Y117.449 E97.34114
G1 X62.154 Y118.050 E97.40732
G1 X52.530 Y123.951 E98.11129
G1 X42.612 Y129.340 E98.81525
G1 X32.425 Y134.203 E99.51922
G1 X22.228 Y138.430 E100.20759
G1 X15.575 Y121.114 E101.36441
G1 X23.900 Y117.663 E101.92642
G1 X24.366 Y117.938 F15000.000
G1 X42.690 Y111.950
G1 X52.897 Y122.157 F300.000 E102.82684
G1 X53.336 Y121.888 E102.85892
G1 X42.098 Y110.651 E103.85026
G1 X42.159 Y110.004 E103.89076
G1 X53.774 Y121.619 E104.91540
G1 X54.213 Y121.350 E104.94749
G1 X42.617 Y109.755 E105.97038
G1 X43.076 Y109.506 E106.00291
G1 X54.651 Y121.082 E107.02406
G1 X55.089 Y120.813 E107.05614
G1 X43.534 Y109.257 E108.07553
G1 X43.989 Y109.005 E108.10799
G1 X55.528 Y120.544 E109.12590
G1 X55.966 Y120.275 E109.15798
G1 X44.427 Y108.736 E110.17590
G1 X44.866 Y108.467 E110.20798
G1 X56.405 Y120.006 E111.22590
G1 X56.843 Y119.737 E111.25798
G1 X45.304 Y108.199 E112.27589
G1 X45.743 Y107.930 E112.30797
G1 X57.282 Y119.469 E113.32589
G1 X57.720 Y119.200 E113.35797
G1 X46.181 Y107.661 E114.37589
G1 X46.620 Y107.392 E114.40797
G1 X58.159 Y118.931 E115.42588
G1 X58.597 Y118.662 E115.45796
G1 X47.058 Y107.123 E116.47588
G1 X47.497 Y106.854 E116.50796
G1 X59.035 Y118.393 E117.52588
G1 X59.474 Y118.124 E117.55796
G1 X47.935 Y106.586 E118.57587
G1 X48.373 Y106.317 E118.60796
G1 X59.912 Y117.855 E119.62587
G1 X60.351 Y117.587 E119.65795
G1 X48.812 Y106.048 E120.67587
G1 X49.250 Y105.779 E120.70795
G1 X60.789 Y117.318 E121.72586
G1 X61.228 Y117.049 E121.75795
G1 X49.689 Y105.510 E122.77586
G1 X50.127 Y105.241 E122.80794
G1 X61.655 Y116.769 E123.82492
G1 X62.074 Y116.481 E123.85665
G1 X50.566 Y104.972 E124.87191
G1 X51.004 Y104.704 E124.90400
G1 X62.494 Y116.193 E125.91756
G1 X62.913 Y115.905 E125.94928
G1 X51.443 Y104.435 E126.96114
G1 X51.881 Y104.166 E126.99322
G1 X63.332 Y115.617 E128.00337
G1 X63.751 Y115.328 E128.03509
G1 X52.319 Y103.897 E129.04353
G1 X52.758 Y103.628 E129.07561
G1 X64.170 Y115.040 E130.08234
G1 X64.589 Y114.752 E130.11407
G1 X53.178 Y103.341 E131.12073
G1 X53.597 Y103.053 E131.15246
G1 X65.008 Y114.464 E132.15913
G1 X65.427 Y114.176 E132.19085
G1 X54.016 Y102.764 E133.19752
G1 X54.435 Y102.476 E133.22924
G1 X65.846 Y113.888 E134.23591
G1 X66.265 Y113.599 E134.26763
G1 X54.854 Y102.188 E135.27430
G1 X55.273 Y101.900 E135.30602
G1 X66.684 Y113.311 E136.31269
G1 X67.104 Y113.023 E136.34441
G1 X55.692 Y101.612 E137.35108
G1 X56.111 Y101.323 E137.38280
G1 X67.523 Y112.735 E138.38947
G1 X67.942 Y112.447 E138.42119
G1 X56.530 Y101.035 E139.42786
G1 X56.950 Y100.747 E139.45958
G1 X68.361 Y112.158 E140.46625
G1 X68.780 Y111.870 E140.49797
G1 X57.369 Y100.459 E141.50464
G1 X57.788 Y100.171 E141.53636
G1 X69.199 Y111.582 E142.54303
G1 X69.618 Y111.294 E142.57475
G1 X58.207 Y99.882 E143.58142
G1 X58.626 Y99.594 E143.61315
G1 X70.037 Y111.006 E144.61981
G1 X70.456 Y110.717 E144.65154
G1 X59.045 Y99.306 E145.65820
G1 X59.464 Y99.018 E145.68993
G1 X70.866 Y110.420 E146.69576
G1 X71.266 Y110.113 E146.72723
G1 X59.883 Y98.730 E147.73139
G1 X60.302 Y98.441 E147.76311
G1 X71.666 Y109.805 E148.76560
G1 X72.066 Y109.498 E148.79707
G1 X60.721 Y98.153 E149.79788
G1 X61.140 Y97.865 E149.82961
G1 X72.466 Y109.191 E150.82874
G1 X72.867 Y108.884 E150.86021
G1 X61.549 Y97.567 E151.85857
G1 X61.949 Y97.260 E151.89004
G1 X73.267 Y108.577 E152.88840
G1 X73.667 Y108.270 E152.91986
G1 X62.350 Y96.952 E153.91823
G1 X62.750 Y96.645 E153.94969
G1 X74.067 Y107.962 E154.94806
G1 X74.467 Y107.655 E154.97952
G1 X63.150 Y96.338 E155.97788
G1 X63.550 Y96.031 E156.00935
G1 X74.867 Y107.348 E157.00771
G1 X75.267 Y107.041 E157.03918
G1 X63.950 Y95.724 E158.03754
G1 X64.350 Y95.416 E158.06901
G1 X75.667 Y106.734 E159.06737
G1 X76.067 Y106.426 E159.09883
G1 X64.750 Y95.109 E160.09720
G1 X65.150 Y94.802 E160.12866
G1 X76.467 Y106.119 E161.12703
G1 X76.868 Y105.812 E161.15849
G1 X65.550 Y94.495 E162.15685
G1 X65.951 Y94.188 E162.18832
G1 X77.268 Y105.505 E163.18668
G1 X77.668 Y105.198 E163.21815
G1 X66.351 Y93.881 E164.21651
G1 X66.751 Y93.573 E164.24798
G1 X78.068 Y104.891 E165.24634
G1 X78.468 Y104.583 E165.27780
G1 X67.151 Y93.266 E166.27617
G1 X67.551 Y92.959 E166.30763
G1 X78.868 Y104.276 E167.30600
G1 X79.268 Y103.969 E167.33746
G1 X67.951 Y92.652 E168.33582
G1 X68.351 Y92.345 E168.36729
G1 X79.664 Y103.657 E169.36523
G1 X80.045 Y103.331 E169.39652
G1 X68.751 Y92.037 E170.39281
G1 X69.151 Y91.730 E170.42428
G1 X80.426 Y103.005 E171.41892
G1 X80.808 Y102.679 E171.45021
G1 X69.551 Y91.423 E172.44320
G1 X69.934 Y91.098 E172.47450
G1 X81.189 Y102.353 E173.46740
G1 X81.571 Y102.028 E173.49869
G1 X70.315 Y90.772 E174.49159
G1 X70.697 Y90.446 E174.52288
G1 X81.952 Y101.702 E175.51578
G1 X82.333 Y101.376 E175.54707
G1 X71.078 Y90.121 E176.53997
G1 X71.459 Y89.795 E176.57126
G1 X82.715 Y101.050 E177.56416
G1 X83.096 Y100.724 E177.59545
G1 X71.841 Y89.469 E178.58835
G1 X72.222 Y89.143 E178.61964
G1 X83.477 Y100.398 E179.61254
G1 X83.859 Y100.072 E179.64383
G1 X72.604 Y88.817 E180.63673
G1 X72.985 Y88.491 E180.66802
G1 X84.240 Y99.746 E181.66091
G1 X84.622 Y99.420 E181.69221
G1 X73.366 Y88.165 E182.68510
G1 X73.748 Y87.839 E182.71640
G1 X85.003 Y99.094 E183.70929
G1 X85.384 Y98.769 E183.74059
G1 X74.129 Y87.513 E184.73348
G1 X74.511 Y87.187 E184.76478
G1 X85.766 Y98.443 E185.75767
G1 X86.147 Y98.117 E185.78897
G1 X74.892 Y86.862 E186.78186
G1 X75.273 Y86.536 E186.81316
G1 X86.529 Y97.791 E187.80605
G1 X86.910 Y97.465 E187.83735
G1 X75.655 Y86.210 E188.83024
G1 X76.036 Y85.884 E188.86154
