; generated by Slic3r 0.9.11-dev on 2013-09-01 at 12:07:41

; M-PLA-05-03-1

; layer_height = 0.3
; perimeters = 3
; top_solid_layers = 3
; bottom_solid_layers = 2
; fill_density = 0.2
; perimeter_speed = 32
; infill_speed = 50
; travel_speed = 250
; nozzle_diameter = 0.5
; filament_diameter = 1.75
; extrusion_multiplier = 1.0
; perimeters extrusion width = 0.50mm
; infill extrusion width = 0.50mm
; solid infill extrusion width = 0.50mm
; top infill extrusion width = 0.50mm
; support material extrusion width = 0.26mm
; first layer extrusion width = 0.50mm

G21 ; set units to millimeters
M107
M190 S57 ; wait for bed temperature to be reached
M104 S205 ; set temperature
G28
G1 Z0.3 F200
G1 X15 Y20 F12000
M109 S205 ; wait for temperature to be reached
G90 ; use absolute coordinates
G92 E0
M82 ; use absolute distances for extrusion
G1 Z0.300 F15000.000
G1 F2760.000 E-3.20000
G92 E0
G1 X53.886 Y69.389 F15000.000
G1 E3.20000 F2760.000
G1 X56.866 Y67.059 E3.43590 F960.000
G1 X60.256 Y64.679 E3.69421
G1 X63.456 Y62.659 E3.93021
G1 X67.046 Y60.619 E4.18771
G1 X70.436 Y58.919 E4.42421
G1 X74.046 Y57.309 E4.67072
G1 X77.736 Y55.879 E4.91751
G1 X81.666 Y54.589 E5.17546
G1 X85.316 Y53.579 E5.41164
G1 X89.336 Y52.669 E5.66868
G1 X93.076 Y52.019 E5.90542
G1 X97.176 Y51.519 E6.16300
G1 X101.126 Y51.229 E6.40999
G1 X104.916 Y51.139 E6.64641
G1 X109.036 Y51.239 E6.90343
G1 X112.816 Y51.519 E7.13980
G1 X116.916 Y52.019 E7.39738
G1 X120.816 Y52.699 E7.64427
G1 X124.516 Y53.529 E7.88074
G1 X128.496 Y54.639 E8.13842
G1 X132.236 Y55.879 E8.38414
G1 X135.786 Y57.239 E8.62122
G1 X139.406 Y58.849 E8.86829
G1 X143.096 Y60.699 E9.12571
G1 X146.396 Y62.569 E9.36226
G1 X149.736 Y64.679 E9.60863
G1 X152.976 Y66.959 E9.85570
G1 X156.236 Y69.499 E10.11343
G1 X159.106 Y71.979 E10.34997
G1 X161.966 Y74.709 E10.59654
G1 X164.816 Y77.689 E10.85369
G1 X167.406 Y80.689 E11.10086
G1 X169.736 Y83.669 E11.33676
G1 X172.116 Y87.059 E11.59507
G1 X174.226 Y90.399 E11.84144
G1 X176.096 Y93.699 E12.07799
G1 X177.876 Y97.239 E12.32509
G1 X179.556 Y101.009 E12.58248
G1 X180.916 Y104.539 E12.81840
G1 X182.156 Y108.299 E13.06530
G1 X183.266 Y112.279 E13.32298
G1 X184.096 Y115.979 E13.55945
G1 X184.776 Y119.879 E13.80634
G1 X185.276 Y123.989 E14.06454
G1 X185.546 Y127.739 E14.29900
G1 X185.446 Y128.869 E14.36975
G1 X184.976 Y129.909 E14.44092
G1 X184.206 Y130.749 E14.51199
G1 X183.206 Y131.299 E14.58316
G1 X144.426 Y144.779 E17.14353
G1 X143.606 Y145.019 E17.19681
G1 X142.806 Y145.209 E17.24809
G1 X140.946 Y145.489 E17.36539
G1 X140.436 Y145.529 E17.39729
G1 X136.866 Y145.529 E17.61993
G1 X64.886 Y144.349 E22.10940
G1 X64.326 Y144.299 E22.14446
G1 X63.236 Y144.079 E22.21381
G1 X62.196 Y143.779 E22.28131
G1 X26.776 Y131.289 E24.62351
G1 X25.776 Y130.739 E24.69468
G1 X25.006 Y129.909 E24.76529
G1 X24.546 Y128.869 E24.83621
G1 X24.446 Y127.739 E24.90695
G1 X24.736 Y123.809 E25.15270
G1 X25.216 Y119.879 E25.39961
G1 X25.896 Y115.979 E25.64649
G1 X26.726 Y112.279 E25.88297
G1 X27.836 Y108.299 E26.14065
G1 X29.076 Y104.539 E26.38755
G1 X30.436 Y101.009 E26.62347
G1 X32.116 Y97.239 E26.88086
G1 X33.816 Y93.859 E27.11681
G1 X35.756 Y90.409 E27.36364
G1 X37.876 Y87.059 E27.61087
G1 X40.256 Y83.669 E27.86918
G1 X42.586 Y80.689 E28.10509
G1 X45.176 Y77.689 E28.35225
G1 X47.906 Y74.829 E28.59882
G1 X50.886 Y71.979 E28.85597
G1 X53.829 Y69.438 E29.09846
G1 F2760.000 E25.89846
G92 E0
G1 X56.208 Y72.351 F15000.000
G1 E3.20000 F2760.000
G1 X59.184 Y70.028 E3.43542 F780.000
G1 X62.270 Y67.854 E3.67084
G1 X65.459 Y65.835 E3.90626
G1 X68.744 Y63.974 E4.14168
G1 X72.116 Y62.277 E4.37710
G1 X73.053 Y61.862 E4.44100
G1 X75.567 Y60.747 E4.61252
G1 X79.089 Y59.388 E4.84794
G1 X82.674 Y58.204 E5.08337
G1 X86.312 Y57.197 E5.31879
G1 X89.995 Y56.370 E5.55421
G1 X93.715 Y55.725 E5.78963
G1 X97.461 Y55.263 E6.02505
G1 X101.226 Y54.985 E6.26047
G1 X105.000 Y54.893 E6.49589
G1 X106.024 Y54.918 E6.55979
G1 X108.774 Y54.985 E6.73131
G1 X112.539 Y55.263 E6.96673
G1 X116.285 Y55.725 E7.20215
G1 X120.005 Y56.370 E7.43757
G1 X123.688 Y57.197 E7.67299
G1 X127.326 Y58.204 E7.90841
G1 X130.911 Y59.388 E8.14383
G1 X134.433 Y60.747 E8.37925
G1 X137.884 Y62.277 E8.61467
G1 X141.256 Y63.974 E8.85009
G1 X144.541 Y65.835 E9.08552
G1 X147.730 Y67.854 E9.32094
G1 X150.816 Y70.028 E9.55636
G1 X153.792 Y72.351 E9.79178
G1 X156.651 Y74.816 E10.02720
G1 X159.385 Y77.419 E10.26262
G1 X161.988 Y80.153 E10.49804
G1 X164.454 Y83.012 E10.73346
G1 X166.776 Y85.988 E10.96888
G1 X168.950 Y89.074 E11.20430
G1 X170.969 Y92.264 E11.43972
G1 X172.830 Y95.548 E11.67514
G1 X174.527 Y98.920 E11.91056
G1 X174.943 Y99.857 E11.97446
G1 X176.057 Y102.371 E12.14598
G1 X177.416 Y105.893 E12.38140
G1 X178.600 Y109.478 E12.61683
G1 X179.607 Y113.116 E12.85225
G1 X180.434 Y116.800 E13.08767
G1 X181.079 Y120.519 E13.32309
G1 X181.541 Y124.266 E13.55851
G1 X181.791 Y127.744 E13.77601
G1 X180.382 Y127.744 E13.86391
G1 X180.125 Y124.405 E14.07277
G1 X179.671 Y120.728 E14.30383
G1 X179.038 Y117.077 E14.53489
G1 X178.226 Y113.462 E14.76595
G1 X177.238 Y109.891 E14.99702
G1 X176.075 Y106.373 E15.22808
G1 X174.742 Y102.916 E15.45914
G1 X173.241 Y99.529 E15.69021
G1 X171.575 Y96.219 E15.92127
G1 X169.748 Y92.996 E16.15233
G1 X167.766 Y89.865 E16.38340
G1 X165.633 Y86.836 E16.61446
G1 X163.353 Y83.915 E16.84552
G1 X160.933 Y81.110 E17.07659
G1 X158.378 Y78.426 E17.30765
G1 X155.695 Y75.871 E17.53871
G1 X152.889 Y73.451 E17.76977
G1 X149.968 Y71.172 E18.00084
G1 X146.939 Y69.038 E18.23190
G1 X143.809 Y67.056 E18.46296
G1 X140.585 Y65.230 E18.69403
G1 X137.275 Y63.564 E18.92509
G1 X133.888 Y62.062 E19.15615
G1 X130.431 Y60.729 E19.38722
G1 X126.913 Y59.567 E19.61828
G1 X123.342 Y58.578 E19.84934
G1 X119.727 Y57.767 E20.08041
G1 X116.076 Y57.133 E20.31147
G1 X112.399 Y56.680 E20.54253
G1 X108.704 Y56.407 E20.77359
G1 X105.000 Y56.316 E21.00466
G1 X101.296 Y56.407 E21.23572
G1 X97.601 Y56.680 E21.46678
G1 X93.924 Y57.133 E21.69785
G1 X90.273 Y57.767 E21.92891
G1 X86.658 Y58.578 E22.15997
G1 X83.087 Y59.567 E22.39104
G1 X79.569 Y60.729 E22.62210
G1 X76.112 Y62.062 E22.85316
G1 X72.725 Y63.564 E23.08423
G1 X69.415 Y65.230 E23.31529
G1 X66.191 Y67.056 E23.54635
G1 X63.061 Y69.038 E23.77742
G1 X60.032 Y71.172 E24.00848
G1 X57.111 Y73.451 E24.23954
G1 X54.305 Y75.871 E24.47061
G1 X51.622 Y78.426 E24.70167
G1 X49.067 Y81.110 E24.93273
G1 X46.647 Y83.915 E25.16379
G1 X44.367 Y86.836 E25.39486
G1 X42.234 Y89.865 E25.62592
G1 X40.252 Y92.996 E25.85698
G1 X38.425 Y96.219 E26.08805
G1 X36.759 Y99.529 E26.31911
G1 X35.258 Y102.916 E26.55017
G1 X33.925 Y106.373 E26.78124
G1 X32.762 Y109.891 E27.01230
G1 X31.774 Y113.462 E27.24336
G1 X30.962 Y117.077 E27.47443
G1 X30.329 Y120.728 E27.70549
G1 X29.875 Y124.405 E27.93654
G1 X29.621 Y127.744 E28.14539
G1 X28.210 Y127.744 E28.23338
G1 X28.459 Y124.265 E28.45090
G1 X28.921 Y120.519 E28.68629
G1 X29.566 Y116.800 E28.92171
G1 X30.393 Y113.116 E29.15713
G1 X31.400 Y109.478 E29.39255
G1 X32.584 Y105.893 E29.62797
G1 X33.943 Y102.371 E29.86339
G1 X35.473 Y98.920 E30.09881
G1 X37.170 Y95.548 E30.33423
G1 X39.031 Y92.264 E30.56965
G1 X41.050 Y89.074 E30.80507
G1 X43.224 Y85.988 E31.04049
G1 X45.546 Y83.012 E31.27591
G1 X48.012 Y80.153 E31.51133
G1 X50.615 Y77.419 E31.74676
G1 X53.349 Y74.816 E31.98218
G1 X56.151 Y72.400 E32.21292
G1 X56.674 Y72.531 F15000.000
G1 X56.797 Y72.493 F15000.000
G1 X57.195 Y72.183 E32.24439 F600.000
G1 X57.532 Y72.520 E32.27415 F600.000
G1 X57.929 Y72.210 E32.30562 F600.000
G1 X57.592 Y71.873 E32.33538 F600.000
G1 X57.990 Y71.562 E32.36685 F600.000
G1 X58.327 Y71.900 E32.39660 F600.000
G1 X58.724 Y71.589 E32.42807 F600.000
G1 X58.387 Y71.252 E32.45783 F600.000
G1 X58.785 Y70.942 E32.48930 F600.000
G1 X59.122 Y71.279 E32.51906 F600.000
G1 X59.519 Y70.969 E32.55053 F600.000
G1 X59.182 Y70.632 E32.58029 F600.000
G1 X59.585 Y70.327 E32.61182 F600.000
G1 X59.924 Y70.666 E32.64179 F600.000
G1 X60.340 Y70.374 E32.67349 F600.000
G1 X60.000 Y70.034 E32.70347 F600.000
G1 X60.415 Y69.742 E32.73517 F600.000
G1 X60.755 Y70.081 E32.76514 F600.000
G1 X61.170 Y69.789 E32.79684 F600.000
G1 X60.830 Y69.449 E32.82682 F600.000
G1 X61.246 Y69.157 E32.85852 F600.000
G1 X61.585 Y69.496 E32.88850 F600.000
G1 X62.001 Y69.204 E32.92020 F600.000
G1 X61.661 Y68.864 E32.95017 F600.000
G1 X62.076 Y68.572 E32.98187 F600.000
G1 X62.416 Y68.912 E33.01185 F600.000
G1 X62.833 Y68.621 E33.04357 F600.000
G1 X62.491 Y68.280 E33.07368 F600.000
G1 X62.923 Y68.003 E33.10565 F600.000
G1 X63.266 Y68.346 E33.13592 F600.000
G1 X63.699 Y68.072 E33.16793 F600.000
G1 X63.356 Y67.729 E33.19820 F600.000
G1 X63.790 Y67.454 E33.23021 F600.000
G1 X64.132 Y67.797 E33.26049 F600.000
G1 X64.566 Y67.523 E33.29250 F600.000
G1 X64.223 Y67.180 E33.32277 F600.000
G1 X64.656 Y66.906 E33.35478 F600.000
G1 X64.999 Y67.249 E33.38505 F600.000
G1 X65.432 Y66.974 E33.41706 F600.000
G1 X65.089 Y66.631 E33.44733 F600.000
G1 X65.523 Y66.357 E33.47934 F600.000
G1 X65.866 Y66.700 E33.50961 F600.000
G1 X66.314 Y66.440 E33.54194 F600.000
G1 X65.967 Y66.093 E33.57258 F600.000
G1 X66.419 Y65.837 E33.60499 F600.000
G1 X66.766 Y66.185 E33.63563 F600.000
G1 X67.218 Y65.929 E33.66804 F600.000
G1 X66.870 Y65.581 E33.69869 F600.000
G1 X67.322 Y65.326 E33.73109 F600.000
G1 X67.669 Y65.673 E33.76174 F600.000
G1 X68.121 Y65.417 E33.79414 F600.000
G1 X67.774 Y65.070 E33.82479 F600.000
G1 X68.226 Y64.814 E33.85720 F600.000
G1 X68.573 Y65.161 E33.88784 F600.000
G1 X69.025 Y64.905 E33.92025 F600.000
G1 X68.677 Y64.558 E33.95089 F600.000
G1 X69.136 Y64.309 E33.98346 F600.000
G1 X69.488 Y64.661 E34.01457 F600.000
G1 X69.959 Y64.424 E34.04746 F600.000
G1 X69.607 Y64.072 E34.07857 F600.000
G1 X70.077 Y63.835 E34.11146 F600.000
G1 X70.430 Y64.187 E34.14257 F600.000
G1 X70.901 Y63.950 E34.17546 F600.000
G1 X70.548 Y63.598 E34.20656 F600.000
G1 X71.019 Y63.361 E34.23946 F600.000
G1 X71.371 Y63.713 E34.27056 F600.000
G1 X71.842 Y63.476 E34.30345 F600.000
G1 X71.490 Y63.124 E34.33456 F600.000
G1 X71.960 Y62.887 E34.36745 F600.000
G1 X72.313 Y63.239 E34.39856 F600.000
G1 X72.794 Y63.013 E34.43177 F600.000
G1 X72.436 Y62.655 E34.46342 F600.000
G1 X72.926 Y62.437 E34.49690 F600.000
G1 X73.285 Y62.796 E34.52855 F600.000
G1 X73.775 Y62.579 E34.56203 F600.000
G1 X73.416 Y62.220 E34.59368 F600.000
G1 X73.907 Y62.003 E34.62716 F600.000
G1 X74.265 Y62.361 E34.65882 F600.000
G1 X74.756 Y62.144 E34.69229 F600.000
G1 X74.397 Y61.785 E34.72395 F600.000
G1 X74.888 Y61.568 E34.75742 F600.000
G1 X75.246 Y61.926 E34.78908 F600.000
G1 X75.736 Y61.709 E34.82256 F600.000
G1 X75.378 Y61.351 E34.85421 F600.000
G1 X75.873 Y61.138 E34.88785 F600.000
G1 X76.239 Y61.504 E34.92015 F600.000
G1 X76.750 Y61.307 E34.95432 F600.000
G1 X76.384 Y60.941 E34.98662 F600.000
G1 X76.895 Y60.744 E35.02079 F600.000
G1 X77.261 Y61.110 E35.05309 F600.000
G1 X77.771 Y60.913 E35.08726 F600.000
G1 X77.405 Y60.547 E35.11956 F600.000
G1 X77.916 Y60.350 E35.15373 F600.000
G1 X78.282 Y60.716 E35.18603 F600.000
G1 X78.793 Y60.519 E35.22020 F600.000
G1 X78.427 Y60.153 E35.25251 F600.000
G1 X78.937 Y59.956 E35.28667 F600.000
G1 X79.303 Y60.322 E35.31898 F600.000
G1 X79.831 Y60.142 E35.35377 F600.000
G1 X79.456 Y59.767 E35.38683 F600.000
G1 X79.988 Y59.592 E35.42180 F600.000
G1 X80.363 Y59.966 E35.45487 F600.000
G1 X80.895 Y59.791 E35.48983 F600.000
G1 X80.520 Y59.416 E35.52290 F600.000
G1 X81.052 Y59.240 E35.55787 F600.000
G1 X81.427 Y59.615 E35.59093 F600.000
G1 X81.959 Y59.439 E35.62590 F600.000
G1 X81.584 Y59.064 E35.65896 F600.000
G1 X82.116 Y58.889 E35.69393 F600.000
G1 X82.491 Y59.263 E35.72699 F600.000
G1 X83.026 Y59.091 E35.76208 F600.000
G1 X82.648 Y58.713 E35.79542 F600.000
G1 X83.195 Y58.553 E35.83102 F600.000
G1 X83.580 Y58.937 E35.86497 F600.000
G1 X83.750 Y58.399 E35.90018 F600.000
G1 X84.134 Y58.784 E35.93412 F600.000
G1 X84.304 Y58.246 E35.96933 F600.000
G1 X84.689 Y58.631 E36.00327 F600.000
G1 X84.858 Y58.093 E36.03848 F600.000
G1 X85.243 Y58.477 E36.07242 F600.000
G1 X85.413 Y57.939 E36.10763 F600.000
G1 X85.797 Y58.324 E36.14158 F600.000
G1 X85.967 Y57.786 E36.17679 F600.000
G1 X86.352 Y58.170 E36.21073 F600.000
G1 X86.525 Y57.636 E36.24578 F600.000
G1 X86.921 Y58.032 E36.28074 F600.000
G1 X87.103 Y57.507 E36.31546 F600.000
G1 X87.499 Y57.903 E36.35042 F600.000
G1 X87.681 Y57.377 E36.38515 F600.000
G1 X88.077 Y57.773 E36.42011 F600.000
G1 X88.259 Y57.247 E36.45483 F600.000
G1 X88.655 Y57.643 E36.48979 F600.000
G1 X88.837 Y57.117 E36.52452 F600.000
G1 X89.233 Y57.513 E36.55948 F600.000
G1 X89.415 Y56.987 E36.59420 F600.000
G1 X89.811 Y57.384 E36.62916 F600.000
G1 X89.993 Y56.858 E36.66389 F600.000
G1 X90.398 Y57.263 E36.69965 F600.000
G1 X90.592 Y56.749 E36.73393 F600.000
G1 X91.001 Y57.158 E36.77005 F600.000
G1 X91.195 Y56.644 E36.80433 F600.000
G1 X91.604 Y57.054 E36.84046 F600.000
G1 X91.798 Y56.540 E36.87474 F600.000
G1 X92.207 Y56.949 E36.91086 F600.000
G1 X92.401 Y56.435 E36.94514 F600.000
G1 X92.810 Y56.844 E36.98126 F600.000
G1 X93.004 Y56.330 E37.01554 F600.000
G1 X93.413 Y56.740 E37.05167 F600.000
G1 X93.607 Y56.226 E37.08595 F600.000
G1 X94.023 Y56.642 E37.12271 F600.000
G1 X94.229 Y56.140 E37.15658 F600.000
G1 X94.653 Y56.565 E37.19404 F600.000
G1 X94.859 Y56.062 E37.22791 F600.000
G1 X95.283 Y56.487 E37.26537 F600.000
G1 X95.489 Y55.985 E37.29924 F600.000
G1 X95.913 Y56.409 E37.33670 F600.000
G1 X96.119 Y55.907 E37.37056 F600.000
G1 X96.543 Y56.331 E37.40803 F600.000
G1 X96.749 Y55.829 E37.44189 F600.000
G1 X97.173 Y56.254 E37.47936 F600.000
G1 X97.379 Y55.752 E37.51322 F600.000
G1 X97.815 Y56.188 E37.55170 F600.000
G1 X98.032 Y55.697 E37.58518 F600.000
G1 X98.474 Y56.139 E37.62419 F600.000
G1 X98.691 Y55.648 E37.65767 F600.000
G1 X99.133 Y56.090 E37.69667 F600.000
G1 X99.350 Y55.600 E37.73016 F600.000
G1 X99.792 Y56.042 E37.76916 F600.000
G1 X100.009 Y55.551 E37.80264 F600.000
G1 X100.451 Y55.993 E37.84165 F600.000
G1 X100.668 Y55.503 E37.87513 F600.000
G1 X101.110 Y55.944 E37.91413 F600.000
G1 X101.331 Y55.458 E37.94750 F600.000
G1 X101.793 Y55.920 E37.98828 F600.000
G1 X102.022 Y55.441 E38.02140 F600.000
G1 X102.484 Y55.903 E38.06218 F600.000
G1 X102.713 Y55.424 E38.09531 F600.000
G1 X103.175 Y55.886 E38.13609 F600.000
G1 X103.403 Y55.407 E38.16922 F600.000
G1 X103.865 Y55.869 E38.21000 F600.000
G1 X104.094 Y55.390 E38.24313 F600.000
G1 X104.556 Y55.852 E38.28391 F600.000
G1 X104.785 Y55.373 E38.31703 F600.000
G1 X105.259 Y55.847 E38.35891 F600.000
G1 X105.500 Y55.380 E38.39171 F600.000
G1 X105.985 Y55.865 E38.43455 F600.000
G1 X106.225 Y55.398 E38.46735 F600.000
G1 X106.710 Y55.883 E38.51018 F600.000
G1 X106.951 Y55.416 E38.54299 F600.000
G1 X107.436 Y55.901 E38.58582 F600.000
G1 X107.676 Y55.433 E38.61862 F600.000
G1 X108.161 Y55.919 E38.66145 F600.000
G1 X108.402 Y55.451 E38.69426 F600.000
G1 X108.895 Y55.945 E38.73784 F600.000
G1 X109.147 Y55.489 E38.77034 F600.000
G1 X109.659 Y56.001 E38.81556 F600.000
G1 X109.911 Y55.545 E38.84807 F600.000
G1 X110.423 Y56.058 E38.89328 F600.000
G1 X110.675 Y55.602 E38.92579 F600.000
G1 X111.187 Y56.114 E38.97101 F600.000
G1 X111.439 Y55.658 E39.00351 F600.000
G1 X111.951 Y56.170 E39.04873 F600.000
G1 X112.203 Y55.714 E39.08124 F600.000
G1 X112.731 Y56.242 E39.12780 F600.000
G1 X112.994 Y55.798 E39.16004 F600.000
G1 X113.538 Y56.341 E39.20804 F600.000
G1 X113.801 Y55.897 E39.24028 F600.000
G1 X114.345 Y56.441 E39.28829 F600.000
G1 X114.609 Y55.997 E39.32052 F600.000
G1 X115.153 Y56.541 E39.36853 F600.000
G1 X115.416 Y56.096 E39.40077 F600.000
G1 X115.960 Y56.640 E39.44877 F600.000
G1 X116.224 Y56.196 E39.48100 F600.000
G1 X116.805 Y56.777 E39.53229 F600.000
G1 X117.080 Y56.345 E39.56429 F600.000
G1 X117.661 Y56.926 E39.61558 F600.000
G1 X117.936 Y56.493 E39.64758 F600.000
G1 X118.517 Y57.075 E39.69887 F600.000
G1 X118.792 Y56.642 E39.73087 F600.000
G1 X119.374 Y57.223 E39.78216 F600.000
G1 X119.649 Y56.791 E39.81416 F600.000
G1 X120.257 Y57.399 E39.86783 F600.000
G1 X120.544 Y56.978 E39.89961 F600.000
G1 X121.169 Y57.604 E39.95482 F600.000
G1 X121.457 Y57.183 E39.98660 F600.000
G1 X122.082 Y57.809 E40.04181 F600.000
G1 X122.369 Y57.388 E40.07359 F600.000
